X: 191
T: Daolaji
L: 1/8
M: 3/4
K: G
B2B2B2 [I:setbarnb 1]| 
B2B2A B | 
d4e d | 
B> d B AG2 | 
A BB2B2 | 
A B A G E D | 
E2G2(3E D E | 
D6 | 
A BB4 | 
B2B> A G A | 
d4e d | 
B> d B AG2 | 
A BB2B2 | 
A B A G E D | 
E2G2(3E D E | 
D6 | 
E> D E G E D | 
E> D E G E D | 
G2G3A | 
G4A2 | 
B2B2B2 | 
B2>A2 G A | 
d dd2e d | 
B> d B AG2 | 
A BB2B2 | 
A B A G E D | 
E2G2(3E D E | 
D6 |]

@@@ Tune index: 8859
